src/assets/icons/payview/visa-mastercard.svg

<svg width="48" height="48" viewBox="0 0 48 48" fill="none" xmlns="http://www.w3.org/2000/svg">
<path d="M46.5 27.1835V27.1838C46.5011 28.9953 44.9619 30.5 43.0161 30.5H7.98388C6.0396 30.5 4.5 28.9954 4.5 27.1835L4.5 5.81525C4.5 4.00474 6.03949 2.5 7.98388 2.5L43.0161 2.5C44.9605 2.5 46.5 4.00474 46.5 5.81525V27.1835Z" fill="white" stroke="#CFD8DC"/>
<path d="M37.8941 22.4199V22.1162H37.815L37.7233 22.3248L37.6322 22.1162H37.5525V22.4199H37.6088V22.1909L37.6945 22.3886H37.7527L37.8384 22.1904V22.4199H37.8941ZM37.3917 22.4199V22.168H37.4933V22.1167H37.2344V22.168H37.336V22.4199H37.3917Z" fill="#F79410"/>
<path d="M28.8914 23.7361H22.0391V11.3086H28.8914V23.7361Z" fill="#FF5F00"/>
<path d="M22.4766 17.5242C22.4766 15.0032 23.6463 12.7576 25.4677 11.3105C24.1357 10.2522 22.4547 9.6206 20.6278 9.6206C16.3028 9.6206 12.7969 13.1591 12.7969 17.5242C12.7969 21.8892 16.3028 25.4277 20.6278 25.4277C22.4547 25.4277 24.1357 24.7961 25.4677 23.7379C23.6463 22.2907 22.4766 20.0451 22.4766 17.5242Z" fill="#EB001B"/>
<path d="M38.1322 17.5242C38.1322 21.8892 34.6263 25.4277 30.3013 25.4277C28.4744 25.4277 26.7934 24.7961 25.4609 23.7379C27.2829 22.2907 28.4525 20.0451 28.4525 17.5242C28.4525 15.0032 27.2829 12.7576 25.4609 11.3105C26.7934 10.2522 28.4744 9.6206 30.3013 9.6206C34.6263 9.6206 38.1322 13.1591 38.1322 17.5242Z" fill="#F79E1B"/>
<path d="M42.5 42.1835V42.1838C42.5011 43.9953 40.9619 45.5 39.0161 45.5H3.98388C2.0396 45.5 0.5 43.9954 0.5 42.1835L0.5 20.8153C0.5 19.0047 2.03949 17.5 3.98388 17.5H39.0161C40.9605 17.5 42.5 19.0047 42.5 20.8153V42.1835Z" fill="white" stroke="#CFD8DC"/>
<path d="M18.7634 36.0452H16.3477L17.8575 26.7725H20.2733L18.7634 36.0452Z" fill="#0066B2"/>
<path d="M14.3158 26.7725L12.0122 33.1507L11.7405 31.7767L10.928 27.6075C10.928 27.6075 10.8302 26.7725 9.78197 26.7725H5.97426L5.92969 26.9291C5.92969 26.9291 7.09443 27.1706 8.45617 27.9898L10.5541 36.0452H13.0706L16.9142 26.7725H14.3158Z" fill="#0066B2"/>
<path d="M33.3173 36.0452H35.5346L33.6006 26.7725H31.6579C30.7606 26.7725 30.5435 27.4637 30.5435 27.4637L26.9414 36.0452H29.4593L29.9625 34.6684H33.0326L33.3173 36.0452ZM30.6585 32.7641L31.9282 29.2933L32.6429 32.7641H30.6585Z" fill="#0066B2"/>
<path d="M27.1277 29.1682L27.4728 27.1763C27.4728 27.1763 26.4088 26.7725 25.3001 26.7725C24.1008 26.7725 21.2551 27.297 21.2551 29.8423C21.2551 32.2381 24.5955 32.2683 24.5955 33.5258C24.5955 34.7833 21.5988 34.5591 20.6095 33.7658L20.25 35.8468C20.25 35.8468 21.3285 36.3714 22.9764 36.3714C24.6243 36.3714 27.1119 35.5177 27.1119 33.1967C27.1119 30.7851 23.7414 30.5609 23.7414 29.5132C23.7428 28.464 26.0938 28.5991 27.1277 29.1682Z" fill="#0066B2"/>
<path d="M11.7269 31.6588L10.9071 27.5878C10.9071 27.5878 10.8084 26.7725 9.75061 26.7725H5.90826L5.86328 26.9254C5.86328 26.9254 7.71045 27.2959 9.48071 28.6824C11.1741 30.0071 11.7269 31.6588 11.7269 31.6588Z" fill="#F9A533"/>
</svg>

<svg width="48" height="48" fill="none" xmlns="http://www.w3.org/2000/svg"><path d="M46.5 27.183c.001 1.812-1.538 3.317-3.484 3.317H7.984C6.04 30.5 4.5 28.995 4.5 27.183V5.816C4.5 4.005 6.04 2.5 7.984 2.5h35.032c1.945 0 3.484 1.505 3.484 3.315v21.368Z" fill="#fff" stroke="#CFD8DC"/><path d="M37.894 22.42v-.304h-.079l-.092.209-.09-.209h-.08v.304h.056v-.23l.085.199h.059l.085-.199v.23h.056Zm-.502 0v-.252h.101v-.051h-.259v.051h.102v.252h.056Z" fill="#F79410"/><path d="M28.891 23.736H22.04V11.31h6.852v12.427Z" fill="#FF5F00"/><path d="M22.477 17.524a7.916 7.916 0 0 1 2.99-6.214 7.753 7.753 0 0 0-4.84-1.69c-4.324 0-7.83 3.54-7.83 7.904 0 4.365 3.506 7.904 7.83 7.904a7.753 7.753 0 0 0 4.84-1.69 7.917 7.917 0 0 1-2.99-6.214Z" fill="#EB001B"/><path d="M38.132 17.524c0 4.365-3.506 7.904-7.83 7.904a7.756 7.756 0 0 1-4.841-1.69 7.915 7.915 0 0 0 2.992-6.214 7.915 7.915 0 0 0-2.992-6.214 7.755 7.755 0 0 1 4.84-1.69c4.325 0 7.831 3.54 7.831 7.904Z" fill="#F79E1B"/><path d="M42.5 42.184c.001 1.811-1.538 3.316-3.484 3.316H3.984C2.04 45.5.5 43.995.5 42.184V20.815c0-1.81 1.54-3.315 3.484-3.315h35.032c1.945 0 3.484 1.505 3.484 3.315v21.369Z" fill="#fff" stroke="#CFD8DC"/><path d="M18.763 36.045h-2.415l1.51-9.273h2.415l-1.51 9.273ZM14.316 26.773l-2.304 6.378-.271-1.374-.813-4.17s-.098-.834-1.146-.834H5.974l-.044.156s1.164.242 2.526 1.06l2.098 8.056h2.517l3.843-9.273h-2.598ZM33.317 36.045h2.218L33.6 26.772h-1.943c-.897 0-1.114.692-1.114.692l-3.603 8.581h2.518l.503-1.377h3.07l.285 1.377Zm-2.659-3.28 1.27-3.472.715 3.471h-1.985ZM27.128 29.168l.345-1.992s-1.064-.403-2.173-.403c-1.2 0-4.045.524-4.045 3.07 0 2.395 3.34 2.425 3.34 3.683 0 1.257-2.996 1.033-3.985.24l-.36 2.08s1.078.525 2.726.525 4.136-.853 4.136-3.174c0-2.412-3.37-2.636-3.37-3.684 0-1.049 2.352-.914 3.386-.345Z" fill="#0066B2"/><path d="m11.727 31.659-.82-4.071s-.099-.816-1.156-.816H5.908l-.045.153s1.847.37 3.618 1.757c1.693 1.325 2.246 2.977 2.246 2.977Z" fill="#F9A533"/></svg>
